assets/Index pointing up/Light/Flat/index_pointing_up_flat_light.svg

<svg width="32" height="32" viewBox="0 0 32 32" fill="none" xmlns="http://www.w3.org/2000/svg">
<path d="M21.5 4.6875C21.5 3.125 23.0945 2 24.5 2C26.0938 2 27 3.15625 27 4.6875L26.9766 20.2266C26.9766 25.5312 22.7812 30 16.835 30C11.0312 30 6.66998 25.82 6.66998 20.67V14.7648C6.66998 13.3725 7.86393 12.25 9.34488 12.25H9.35636C10.2883 12.25 11.1066 12.6945 11.5852 13.371C11.6843 12.0424 12.8128 11 14.1975 11H14.2087C15.3346 11 16.291 11.689 16.6626 12.6608C16.7627 11.2678 18.038 10.3125 19.3224 10.3125H19.3338C20.2277 10.3125 21.0167 10.7886 21.5 11.4366V4.6875Z" fill="#FFD7C2"/>
<path d="M21.5 4.6875V11.4297C21.9297 12.0156 21.9297 13.8516 21.9297 14.5156C22.2058 14.5156 22.5 14.2918 22.5 14.0156V4.12501C22.5 3.60698 22.7857 3.09328 23.2064 2.67884C23.4124 2.47582 23.6376 2.31057 23.8469 2.19427C24.0631 2.07409 24.2326 2.02259 24.329 2.01335L24.3284 2.00742C24.2565 2.0025 24.1835 2 24.1094 2C22.7039 2 21.5 3.125 21.5 4.6875Z" fill="#F1B99B"/>
<path d="M17.6719 15.8778V12.7813C17.6719 12.0709 17.9862 11.4861 18.3869 11.0521C18.8018 10.6027 19.2558 10.3717 19.4357 10.332L19.4318 10.3144C19.3993 10.3131 19.3667 10.3125 19.3338 10.3125H19.3224C18.1085 10.3125 16.9027 11.1659 16.6895 12.4356C16.6779 12.548 16.6719 12.6632 16.6719 12.7813V17.2869C16.6008 17.5336 16.5625 17.7967 16.5625 18.07C16.5625 18.2715 16.5853 18.4678 16.6292 18.6563C16.2361 19.5842 15.3024 20.2344 14.2087 20.2344H14.1975C13.5854 20.2344 13.0233 20.0307 12.5781 19.6886V13.1266C12.5781 12.4782 12.8924 11.9445 13.2931 11.5484C13.5547 11.2898 13.8318 11.1105 14.046 11.0042C12.6667 11.0805 11.5781 12.193 11.5781 13.5614V17.6729C11.5781 18.0821 11.6754 18.4683 11.8487 18.8109C11.8214 18.8391 11.7938 18.8668 11.7658 18.8939C11.3337 19.7347 10.4189 20.3125 9.35636 20.3125H9.34488C8.3917 20.3125 7.55742 19.8475 7.08384 19.1449C6.93894 19.026 6.80597 18.8941 6.6875 18.75C7.40625 22.0469 11.0625 21.4948 12.1875 20.5781C12.9062 21.7656 15.5312 21.6563 16.2188 20.7188C16.2188 20.7188 16.4375 21.2656 17.1837 21.6432C15.6203 22.3709 14.24 23.4442 13.3494 24.8586C13.2023 25.0923 13.2725 25.401 13.5061 25.5481C13.7398 25.6952 14.0485 25.6251 14.1957 25.3914C15.76 22.9068 19.1916 21.5255 22.2502 21.5004C22.8962 21.8594 23.5213 22.4348 23.9688 23.4219C24.2025 23.9375 24.7948 24.1171 25.125 23.9375C25.4975 23.7348 25.6114 23.1137 25.4375 22.625C25.2515 22.1024 24.1832 20.8477 22.5082 20.5308C22.4542 20.5109 22.3959 20.5 22.3351 20.5C22.331 20.5 22.327 20.5 22.323 20.5C21.949 20.4464 21.5468 20.44 21.1191 20.4981C18.9763 20.4264 17.4297 19.3666 17.4297 18.031C17.4297 16.6969 18.2252 15.8191 19.0881 15.5012C19.0209 15.5004 18.9546 15.5 18.8894 15.5C18.4426 15.5 18.0258 15.6381 17.6719 15.8778Z" fill="#F1B99B"/>
</svg>

<svg xmlns="http://www.w3.org/2000/svg" width="32" height="32" fill="none"><path fill="#FFD7C2" d="M21.5 4.688C21.5 3.125 23.095 2 24.5 2 26.094 2 27 3.156 27 4.688l-.023 15.539C26.977 25.53 22.78 30 16.835 30 11.031 30 6.67 25.82 6.67 20.67v-5.905c0-1.393 1.194-2.515 2.675-2.515h.011c.932 0 1.75.444 2.23 1.121.098-1.329 1.227-2.371 2.611-2.371h.012c1.126 0 2.082.689 2.454 1.66.1-1.392 1.375-2.348 2.66-2.348h.01c.895 0 1.684.477 2.167 1.125v-6.75Z"/><path fill="#F1B99B" d="M21.5 4.688v6.742c.43.586.43 2.422.43 3.086.276 0 .57-.224.57-.5V4.125c0-.518.286-1.032.706-1.446.206-.203.432-.368.64-.485.217-.12.387-.171.483-.18v-.007a3.207 3.207 0 0 0-.22-.007C22.704 2 21.5 3.125 21.5 4.688ZM17.672 15.878V12.78c0-.71.314-1.295.715-1.729.415-.45.869-.68 1.049-.72l-.004-.018a2.45 2.45 0 0 0-.098-.002h-.012c-1.213 0-2.42.854-2.633 2.124a3.365 3.365 0 0 0-.017.345v4.506c-.071.247-.11.51-.11.783 0 .201.023.398.067.586a2.616 2.616 0 0 1-2.42 1.578h-.011a2.648 2.648 0 0 1-1.62-.545v-6.562c0-.649.314-1.183.715-1.579.262-.258.539-.438.753-.544-1.38.077-2.468 1.189-2.468 2.557v4.112c0 .41.097.795.27 1.138a3.605 3.605 0 0 1-.082.083c-.432.84-1.347 1.419-2.41 1.419h-.011c-.953 0-1.788-.465-2.261-1.168a2.865 2.865 0 0 1-.396-.395c.718 3.297 4.375 2.745 5.5 1.828.718 1.188 3.343 1.078 4.03.14 0 0 .22.548.966.925-1.564.728-2.944 1.801-3.835 3.216a.5.5 0 0 0 .847.532c1.564-2.484 4.996-3.865 8.054-3.89.646.358 1.271.934 1.719 1.92.233.517.826.696 1.156.517.372-.203.486-.824.313-1.313-.186-.523-1.255-1.777-2.93-2.094a.5.5 0 0 0-.173-.031h-.012a4.338 4.338 0 0 0-1.204-.002c-2.143-.072-3.69-1.131-3.69-2.467 0-1.334.796-2.212 1.66-2.53l-.2-.001a2.16 2.16 0 0 0-1.217.378Z"/></svg>
